X: 22
T: Lord, Keep Us Steadfast in Thy Word
M: none % time signature
L: 1/4 % default length
%%staves (S1V1 S1V2) | (S2V1 S2V2) 
V: S1V1 clef=treble 
%%MIDI beat 127 125 110 1
V: S1V2 
%%MIDI beat 127 125 110 1
V: S2V1 clef=bass 
%%MIDI beat 127 125 110 1
V: S2V2 
%%MIDI beat 127 125 110 1
K: G % key signature
%
%%MIDI program 1 0 % Piano 1
%%MIDI program 2 0 % Piano 1
%%MIDI program 3 0 % Piano 1
%%MIDI program 4 0 % Piano 1
%
% 1
[V: S1V1]  [Q:1/4=120] E2 | G E D E G F | E2 G2 | A A B G A A | B2
w: 1.~Lord, keep us stead- fast in thy Word; Curb those who fain by craft and sword 
w: 2.~Lord Je- sus Christ, thy pow'r make known, For thou art Lord of lords a- lone; 
w: 3.~O Com- fort- er of price- less worth, Send peace and u- ni- ty on earth. 
[V: S1V2]  B,2 | B, A, B, C E ^D | B,2 E2 | E F G E E F | G2
[V: S2V1]  G,2 | E, E, F, A, B, B, | G,2 C2 | C D D C C D | D2
[V: S2V2]  E,2 | E, C, B,, A,, G,,/A,,/ B,, | E,,2 C,2 | A,, D, G,, C, A,, D, | G,,2
% 6
[V: S1V1]  B2 | c B d B A A | G2 !sintro!B2 | G A G F E ^D | E2 !eintro!|]
w: Would wrest the king- dom from thy Son And set at naught all he hath done. 
w: De- fend thy Christ- en- dom that we May ev- er- more sing praise to thee. 
w: Sup- port us in our fi- nal strife And lead us out of death to life. 
[V: S1V2]  D2 | E D F G E F | D2 D2 | E E D D B, B, | B,2 |]
[V: S2V1]  G,2 | G, G, A, G, C A, | B,2 G,2 | G, C B, A, G, F, | G,2 |]
[V: S2V2]  G,,2 | C, G,, D, E, C, D, | G,,2 G,,2 | C, A,, B,, D, E, B,, | E,,2 |]
% 11


